symbols/web/airplane_ticket/materialsymbolssharp/airplane_ticket_wght600grad200_48px.svg

<svg xmlns="http://www.w3.org/2000/svg" height="48" width="48"><path d="m17.45 31.8 18.5-5.05q.85-.25 1.225-.8.375-.55.175-1.45-.2-.85-.875-1.175Q35.8 23 35 23.15l-5.15 1.35-8.35-8.1-2.65.6L24 26.1l-5.5 1.5-2.6-2.15-1.55.55Zm-14.4 9.15V28.8q1.75-.4 3.025-1.675T7.35 24q0-1.9-1.275-3.2Q4.8 19.5 3.05 19.15V7.05H45v33.9ZM7.2 36.8h33.6V11.2H7.2v5.1q2 1.3 3.15 3.325Q11.5 21.65 11.5 24q0 2.3-1.15 4.35T7.2 31.7ZM24 24Z"/></svg>

<svg xmlns="http://www.w3.org/2000/svg" height="48" width="48"><path d="M17.45 31.8 35.95 26.75Q36.8 26.5 37.175 25.95Q37.55 25.4 37.35 24.5Q37.15 23.65 36.475 23.325Q35.8 23 35 23.15L29.85 24.5L21.5 16.4L18.85 17L24 26.1L18.5 27.6L15.9 25.45L14.35 26ZM3.05 40.95V28.8Q4.8 28.4 6.075 27.125Q7.35 25.85 7.35 24Q7.35 22.1 6.075 20.8Q4.8 19.5 3.05 19.15V7.05H45V40.95ZM7.2 36.8H40.8V11.2H7.2V16.3Q9.2 17.6 10.35 19.625Q11.5 21.65 11.5 24Q11.5 26.3 10.35 28.35Q9.2 30.4 7.2 31.7ZM24 24Q24 24 24 24Q24 24 24 24Q24 24 24 24Q24 24 24 24Z"/></svg>
